dist/svgs/carbon-icons/svg/storage.svg

<svg xmlns="http://www.w3.org/2000/svg" fill-rule="evenodd" viewBox="0 0 24 24"><path d="M11.9 1.3c5.4 0 9.3 1 10.6 1.7-1.3.7-4.9 1.6-10.6 1.6-5.6 0-9.1-1-10.3-1.6 1.1-.7 4.7-1.7 10.3-1.7zm0-1.3C5.1 0 0 1.4 0 3s5.1 3 11.9 3C18.7 6 24 4.6 24 3s-5.4-3-12.1-3zm.1 18c-4.5 0-12-.7-12-3.2V12h1.2v2.9c0 .5 3.3 2 10.8 2 7.1 0 10.8-1.4 10.8-2V12H24v2.9c0 2.4-7.5 3.1-12 3.1zm0 6c-4.5 0-12-.7-12-3.2V18h1.2v2.8c0 .5 3.3 2 10.8 2 7.1 0 10.8-1.4 10.8-2V18H24v2.8c0 2.5-7.5 3.2-12 3.2zm0-12c-4.4 0-12-.7-12-3.2V6h1.2v2.8c0 .5 3.3 2 10.8 2 7.5 0 10.8-1.4 10.8-2V6H24v2.8c0 2.5-7.5 3.2-12 3.2z"/></svg>

<svg width="24px" height="24px" viewBox="0 0 24 24" version="1.1" xmlns="http://www.w3.org/2000/svg" xmlns:xlink="http://www.w3.org/1999/xlink" fill-rule="evenodd">
	<path d="M11.9,1.3 C17.3,1.3 21.2,2.3 22.5,3 C21.2,3.7 17.6,4.6 11.9,4.6 C6.3,4.6 2.8,3.6 1.6,3 C2.7,2.3 6.3,1.3 11.9,1.3 L11.9,1.3 Z M11.9,0 C5.1,0 0,1.4 0,3 C0,4.6 5.1,6 11.9,6 C18.7,6 24,4.6 24,3 C24,1.4 18.6,0 11.9,0 L11.9,0 L11.9,0 Z" id="Shape" fill="#010101"></path>
	<path d="M12,18 C7.5,18 0,17.3 0,14.8 L0,12 L1.2,12 L1.2,14.9 C1.2,15.4 4.5,16.9 12,16.9 C19.1,16.9 22.8,15.5 22.8,14.9 L22.8,12 L24,12 L24,14.9 C24,17.3 16.5,18 12,18 L12,18 Z" id="Shape" fill="#010101"></path>
	<path d="M12,24 C7.5,24 0,23.3 0,20.8 L0,18 L1.2,18 L1.2,20.8 C1.2,21.3 4.5,22.8 12,22.8 C19.1,22.8 22.8,21.4 22.8,20.8 L22.8,18 L24,18 L24,20.8 C24,23.3 16.5,24 12,24 L12,24 Z" id="Shape" fill="#010101"></path>
	<path d="M12,12 C7.6,12 0,11.3 0,8.8 L0,6 L1.2,6 L1.2,8.8 C1.2,9.3 4.5,10.8 12,10.8 C19.5,10.8 22.8,9.4 22.8,8.8 L22.8,6 L24,6 L24,8.8 C24,11.3 16.5,12 12,12 L12,12 Z" id="Shape" fill="#010101"></path>
</svg>
